img/logo_gray.svg

<?xml version="1.0" encoding="UTF-8" standalone="no"?>
<svg width="28px" height="35px" viewBox="0 0 28 35" version="1.1" xmlns="http://www.w3.org/2000/svg" xmlns:xlink="http://www.w3.org/1999/xlink" xmlns:sketch="http://www.bohemiancoding.com/sketch/ns">
    <!-- Generator: Sketch 3.0.4 (8053) - http://www.bohemiancoding.com/sketch -->
    <title>logo</title>
    <desc>Created with Sketch.</desc>
    <defs></defs>
    <g id="esper.com" stroke="none" stroke-width="1" fill="none" fill-rule="evenodd" sketch:type="MSPage">
        <g class="logo" sketch:type="MSArtboardGroup" fill="#A7A9AC">
            <g id="Visual" sketch:type="MSLayerGroup">
                <path d="M25.0495,3.647 C22.85465,6.19115 19.7414,9.47695 16.1728,12.14395 C14.39445,13.4694 12.49535,14.6412 10.59345,15.4245 C8.6947,16.2148 6.78055,16.58615 5.13975,16.492 C4.3197,16.44965 3.56755,16.29845 2.92495,16.09545 C2.28235,15.8886 1.7353,15.6534 1.3062,15.40595 C1.07905,15.2992 0.9016,15.17425 0.73745,15.0696 C0.5705,14.973 0.4368,14.87675 0.32725,14.7938 C0.1085,14.6412 -0.0042,14.5579 -0.0042,14.5579 C-0.0042,14.5579 0.0945,14.65485 0.29995,14.8351 C0.3955,14.92715 0.5187,15.0409 0.66885,15.16095 C0.83055,15.2754 0.99715,15.4245 1.2103,15.5701 C1.61245,15.87075 2.1455,16.1854 2.78845,16.478 C3.4307,16.7762 4.1965,17.0324 5.0673,17.185 C6.7942,17.49825 8.89945,17.35125 11.0187,16.76255 C13.14775,16.1728 15.2978,15.18895 17.33025,14.01715 C21.2186748,11.7848814 24.7063606,8.93682755 27.2629452,6.6180959 C27.3840378,6.5082692 27.5030415,6.39963001 27.6199,6.2923 C27.7508,6.17715 27.8796,6.05955 27.9958,5.9486 L27.9958,0 C27.8859,0.13965 27.7704,0.31115 27.6199,0.4928 C27.01825,1.26945 26.14325,2.3646 25.0495,3.647 Z" id="Fill-1" sketch:type="MSShapeGroup"></path>
                <path d="M25.6921,12.47155 C23.5032,15.0269 20.3819,18.3099 16.81575,20.9839 C15.03565,22.31355 13.1376,23.47205 11.23535,24.25535 C9.33695,25.046 7.4228,25.42715 5.782,25.3232 C4.96195,25.28155 4.21015,25.1426 3.56755,24.93505 C2.92495,24.7198 2.37825,24.4846 1.94075,24.24205 C1.722,24.13075 1.5442,24.00615 1.37935,23.9022 C1.2117,23.80525 1.07905,23.70795 0.9695,23.6362 C0.75075,23.4759 0.6363,23.394 0.6363,23.394 C0.6363,23.394 0.73745,23.48815 0.9422,23.66735 C1.03845,23.7636 1.1613,23.8742 1.3118,23.9939 C1.4714,24.11675 1.63975,24.26865 1.84485,24.4041 C2.25505,24.70615 2.78845,25.018 3.4307,25.31025 C4.07365,25.61125 4.8391,25.85695 5.7085,26.0162 C7.4368,26.3354 9.5424,26.1828 11.6613,25.5934 C13.7886,25.004 15.9404,24.0205 17.97145,22.8494 C21.91595,20.60135 25.41875,17.7051 27.9958,15.37025 L27.9958,9.6768 C27.41585,10.40725 26.6357,11.3764 25.6921,12.47155" id="Fill-2" sketch:type="MSShapeGroup"></path>
                <path d="M25.96545,21.30275 C23.75065,23.8469 20.64125,27.13935 17.0716,29.8053 C15.2845,31.13215 13.3931,32.2966 11.4835,33.0869 C9.5935,33.87685 7.68285,34.2468 6.04135,34.15475 C5.22165,34.1019 4.46985,33.96365 3.82725,33.75715 C3.18465,33.5405 2.6334,33.3088 2.20045,33.06205 C1.9817,32.9511 1.8004,32.82755 1.63415,32.72885 C1.46195,32.63505 1.33525,32.5297 1.22745,32.45585 C1.01045,32.2966 0.8876,32.21365 0.8876,32.21365 C0.8876,32.21365 0.99715,32.3106 1.197,32.4975 C1.29745,32.5836 1.4182,32.7019 1.5715,32.8167 C1.722,32.93675 1.89735,33.08725 2.1049,33.2255 C2.51475,33.52545 3.0471,33.83975 3.68865,34.14075 C4.3323,34.43825 5.0988,34.68885 5.96015,34.839 C7.6965,35.15365 9.7986,35.00455 11.91995,34.41445 C14.04025,33.82855 16.19625,32.84435 18.2238,31.6799 C22.03285,29.49275 25.4324,26.7162 27.9958,24.42895 L27.9958,18.816 C27.4512,19.51145 26.7624,20.3588 25.96545,21.30275" id="Fill-3" sketch:type="MSShapeGroup"></path>
            </g>
        </g>
    </g>
</svg>

<svg viewBox="0 0 28 35" xmlns="http://www.w3.org/2000/svg"><g fill="#a7a9ac" fill-rule="evenodd"><path d="m25.05 3.647c-2.195 2.544-5.308 5.83-8.877 8.497-1.778 1.325-3.677 2.497-5.579 3.281-1.899.79-3.813 1.162-5.454 1.068-.82-.042-1.572-.194-2.215-.397-.643-.207-1.19-.442-1.619-.689-.227-.107-.405-.232-.569-.336-.167-.097-.301-.193-.41-.276-.219-.153-.331-.236-.331-.236 0 0 .099.097.304.277.096.092.219.206.369.326.162.114.328.264.541.409.402.301.935.615 1.578.908.642.298 1.408.554 2.279.707 1.727.313 3.832.166 5.951-.422 2.129-.59 4.279-1.574 6.312-2.745 3.888-2.232 7.376-5.08 9.933-7.399.121-.11.24-.218.357-.326.131-.115.26-.233.376-.344v-5.949c-.11.14-.225.311-.376.493-.602.777-1.477 1.872-2.57 3.154"/><path d="m25.692 12.472c-2.189 2.555-5.31 5.838-8.876 8.512-1.78 1.33-3.678 2.488-5.58 3.271-1.898.791-3.813 1.172-5.453 1.068-.82-.042-1.572-.181-2.214-.388-.643-.215-1.189-.45-1.627-.693-.219-.111-.397-.236-.561-.34-.168-.097-.3-.194-.41-.266-.219-.16-.333-.242-.333-.242 0 0 .101.094.306.273.096.096.219.207.37.327.16.123.328.275.533.41.41.302.944.614 1.586.906.643.301 1.408.547 2.278.706 1.728.319 3.834.167 5.953-.423 2.127-.589 4.279-1.573 6.31-2.744 3.944-2.248 7.447-5.144 10.02-7.479v-5.693c-.58.73-1.36 1.7-2.304 2.795"/><path d="m25.965 21.303c-2.215 2.544-5.324 5.837-8.894 8.503-1.787 1.327-3.678 2.491-5.588 3.282-1.89.79-3.801 1.16-5.442 1.068-.82-.053-1.572-.191-2.214-.398-.643-.217-1.194-.448-1.627-.695-.219-.111-.4-.234-.566-.333-.172-.094-.299-.199-.407-.273-.217-.159-.34-.242-.34-.242 0 0 .11.097.309.284.1.086.221.204.374.319.151.12.326.271.533.409.41.3.942.614 1.584.915.644.297 1.41.548 2.271.698 1.736.315 3.838.166 5.96-.425 2.12-.586 4.276-1.57 6.304-2.735 3.809-2.187 7.209-4.964 9.772-7.251v-5.613c-.545.695-1.233 1.543-2.03 2.487"/></g></svg>
